X: 16805
T: Harry B's
R: reel
M: 4/4
K: Amajor
|:~E3 F ECB,C|A,CEA BcBA|FBBA B2 Bc|d/c/B c/B/A BAFA|
E2 CF ECB,C|A,CEA BcBA|FBBA B2 AF|1 EFAe cAAF:|2 EFAe cAAB||
|:c2 Be cA ~A2|EFAB cAAc|AB ~B2 B2 AB|cAAc BAFA|
c2 Be cA ~A2|EFAB cAAc|AB ~B2 B2 AF|1 EFAe cAAB:|2 EFAe cAAF||

